Gurmukhi/0A2D.svg

<svg enable-background="new 0 0 336 592" viewBox="0 0 336 592" xmlns="http://www.w3.org/2000/svg"><path d="m235.233429 255.885315c-2.148026 9.90686-5.149506 19.079651-10.226379 27.401398-1.703049 2.791595-.222718 4.237548 1.290298 6.052398 10.171341 12.200257 17.089508 25.92923 17.894836 41.987183 1.353684 26.99176-13.357864 48.036591-40.52565 55.889526-33.64421 9.725006-64.919265 3.70752-92.820915-17.796936-6.26223-4.826477-11.34555-10.831726-13.526832-18.740112-1.254952-4.549866-.72966-8.78717 2.707908-12.954407 4.60006 3.588562 8.960312 7.105225 13.439011 10.463928 18.95768 14.216767 40.125465 21.816193 63.944588 19.347992 18.076431-1.873108 33.835479-8.74945 41.111343-27.058532 5.508163-13.86081 1.789642-26.677552-6.427856-38.417511-2.536911.285156-3.405655 2.084106-4.64885 3.321747-20.488342 20.397186-50.126404 26.496948-75.502548 15.207183-12.823212-5.705047-22.321694-14.832489-25.122444-29.066894-4.051087-20.588959 7.864807-38.809662 28.424232-43.731232 24.651474-5.901153 46.348038 1.013214 66.002884 16.039887 1.421631 1.086853 2.430786 2.776367 4.757324 3.21466 3.543412-6.287018 4.821717-13.332519 5.482254-20.350219.748078-7.948166.144272-15.916108-1.43248-23.842682-.912048-4.585099-3.056549-5.79538-7.468765-5.778092-37.660858.147675-75.323295-.021576-112.983024.234345-5.272973.035827-8.033883-1.528641-9.344635-6.540375-.880013-3.364761-2.516457-6.52449-3.560524-9.855545-1.072869-3.422928.221443-5.537781 3.970794-5.760025 1.495308-.088623 2.998139-.067581 4.497544-.067307 59.491729.011139 118.983627.09195 178.474868-.071548 5.450287-.014969 8.93628 1.135589 10.114106 6.87738.495056 2.413147 1.765441 4.660874 2.612304 7.009445 2.405823 6.672318 1.415467 8.183732-5.494262 8.220063-10.165009.053436-20.331925.140823-30.494919-.004273-4.259537-.060821-5.445847 1.180191-4.549973 5.628617 2.191666 10.882553 1.627762 21.84172-.594238 33.139938m-106.960068 33.410889c.642304 9.262146 6.454132 14.317413 14.522721 17.092132 18.574966 6.387726 45.053207-4.267761 54.413955-21.694366.130463-.242829-.019989-.636536-.058639-1.282288-12.906555-11.429047-27.509445-18.656189-45.561402-17.08905-13.502548 1.17218-22.850891 9.894897-23.316635 22.973572z"/></svg>

<svg version="1.1" id="Layer_1" xmlns="http://www.w3.org/2000/svg" xmlns:xlink="http://www.w3.org/1999/xlink" x="0px" y="0px"
	 width="100%" viewBox="0 0 336 592" enable-background="new 0 0 336 592" xml:space="preserve">
<path fill="#000000" opacity="1.000000" stroke="none" 
	d="
M235.233429,255.885315 
	C233.085403,265.792175 230.083923,274.964966 225.007050,283.286713 
	C223.304001,286.078308 224.784332,287.524261 226.297348,289.339111 
	C236.468689,301.539368 243.386856,315.268341 244.192184,331.326294 
	C245.545868,358.318054 230.834320,379.362885 203.666534,387.215820 
	C170.022324,396.940826 138.747269,390.923340 110.845619,369.418884 
	C104.583389,364.592407 99.500069,358.587158 97.318787,350.678772 
	C96.063835,346.128906 96.589127,341.891602 100.026695,337.724365 
	C104.626755,341.312927 108.987007,344.829590 113.465706,348.188293 
	C132.423386,362.405060 153.591171,370.004486 177.410294,367.536285 
	C195.486725,365.663177 211.245773,358.786835 218.521637,340.477753 
	C224.029800,326.616943 220.311279,313.800201 212.093781,302.060242 
	C209.556870,302.345398 208.688126,304.144348 207.444931,305.381989 
	C186.956589,325.779175 157.318527,331.878937 131.942383,320.589172 
	C119.119171,314.884125 109.620689,305.756683 106.819939,291.522278 
	C102.768852,270.933319 114.684746,252.712616 135.244171,247.791046 
	C159.895645,241.889893 181.592209,248.804260 201.247055,263.830933 
	C202.668686,264.917786 203.677841,266.607300 206.004379,267.045593 
	C209.547791,260.758575 210.826096,253.713074 211.486633,246.695374 
	C212.234711,238.747208 211.630905,230.779266 210.054153,222.852692 
	C209.142105,218.267593 206.997604,217.057312 202.585388,217.074600 
	C164.924530,217.222275 127.262093,217.053024 89.602364,217.308945 
	C84.329391,217.344772 81.568481,215.780304 80.257729,210.768570 
	C79.377716,207.403809 77.741272,204.244080 76.697205,200.913025 
	C75.624336,197.490097 76.918648,195.375244 80.667999,195.153000 
	C82.163307,195.064377 83.666138,195.085419 85.165543,195.085693 
	C144.657272,195.096832 204.149170,195.177643 263.640411,195.014145 
	C269.090698,194.999176 272.576691,196.149734 273.754517,201.891525 
	C274.249573,204.304672 275.519958,206.552399 276.366821,208.900970 
	C278.772644,215.573288 277.782288,217.084702 270.872559,217.121033 
	C260.707550,217.174469 250.540634,217.261856 240.377640,217.116760 
	C236.118103,217.055939 234.931793,218.296951 235.827667,222.745377 
	C238.019333,233.627930 237.455429,244.587097 235.233429,255.885315 
M128.273361,289.296204 
	C128.915665,298.558350 134.727493,303.613617 142.796082,306.388336 
	C161.371048,312.776062 187.849289,302.120575 197.210037,284.693970 
	C197.340500,284.451141 197.190048,284.057434 197.151398,283.411682 
	C184.244843,271.982635 169.641953,264.755493 151.589996,266.322632 
	C138.087448,267.494812 128.739105,276.217529 128.273361,289.296204 
z"/>
</svg>
